!!key: tele-40-10-Fan-Aff-01-Flute
!!!COM: Telemann, Georg Philipp
!!!CDT: 1681/03/14-1767/06/25
!!!CBL: Magdeburg
!!!CDL: Hamburg
!!!CNT: German
!!!TWV: 40:10
!!!TWV-genre: 40
!!!TWV-work: 10
!!!OPR: 12 Fantasias for transverse flute without bass
!!!OTL: Fantasia 9
!!!OMD: Affettuoso
!!!OMV: 1
!!!ODT: ca. 1732–1733
!!!AST: Late Baroque
!!!AGN: Fantasia
!!!AMT: Simple triple
!!!AIN: Transverse flute
**kern
*ICww
*Iflt
*clefG2
*k[f#c#g#d#]
*E:
*M3/4
=1
4e
(4gg#
8.aa)L
16bbJ
=2
4f#
(4dd#
8.ee)L
16ff#J
=3
8.g#L
16bJ
8.eeL
16dd#J
4ee
=4
8.aL
16cc#J
8.d#L
16bJ
!TODO: trill +
(8.aL
32g#
32a)J
=5
8.eL
16aJ
4g#
4r
!!LO:LB:g=original
=6
4d#
(4f#
8.g#)L
16aJ
=7
4e
8.g#L
16f#J
4g#
=8
4e
(8.cc#L
16bJ
8.a#X)L
16bJ
=9
8.f#L
16bJ
2a#X
=10
8ee\L
8g#
8dd#
8f#
8cc#
8eJ
=11
8d#
4ff#
8ee
12dd#L
12cc#
12bJ
!!LO:LB:g=original
=12
8.cc#L
16eJ
4f#
!TODO: trill +
8.a#XL
16bJ
=13
2b
4r
=14:||:
4an
4dd#
!TODO: trill +
8.cc#L
16bJ
=15
4g#
8.eeL
16dd#J
4ee
=16
4f#
(8aaL
16gg#
16ff#)J
8.gg#L
16aaJ
=17
4g#
8.b#XL
16cc#J
4dd#
=18
8e
4gg#
16ff#LL
16eeJ
8dd#
8cc#J
!!LO:LB:g=original
=19
8f#
4gg#
16ff#LL
16eeJ
8dd#
8cc#J
=20
8g#
4ee
(8dd#L
8cc#
8b#X)J
=21
(4b#X
8cc#)L
16dd#
16eeJ
8bnL
8aJ
=22
4e
(8g#L
8b
8dd#
8ee)J
=23
4f#
(8aL
8b
8dd#
8ee)J
!!LO:LB:g=original
=24
8g#L
8ee
8d#
8ff#
8e
8gg#J
=25
4b
(8.gg#L
16ee)J
(8.ff#L
16gg#)J
=26
8aaL
8cc#
8gg#
8b
8ff#
8aJ
=27
8g#
4bb
8aa
12gg#L
12ff#
12eeJ
=28
8.ff#L
16aJ
4b
!TODO: trill +
8.dd#L
16eeJ
=29
2ee
4r
==:|
*-
!!!RTL1: G. PH. Telemann: Twelve Fantasias for Flute without Bass TWV 40:2-13
!!!RTL1: G. PH. Telemann: Twelve Fantasias for Flute without Bass TWV 40:2-13
!!!RTL1: G. PH. Telemann: Twelve Fantasias for Flute without Bass TWV 40:2-13
!!!RPN1: D'Arcangelo, Rita
!!!RMM1: Da Vinci Classics
!!!RC#1: DV-C00440
!!!RRD1: 2022
!!!RLC1: Andreaskirche, Berlin, Germany
!!!RDT1: 16 September 2020, 17 September 2020
!!!RT#1: 9
!!!RTL2: The Telemann Files: 12 Fantasies for Solo Flute
!!!RPN2: Choi, Jasmine
!!!RMM2: Austrian Gramophone
!!!RC#2: AG0001
!!!RRD2: February 2015
!!!RLC2: LeFrak Hall, Queens, USA
!!!RDT2: 9 June 2014, 10 June 2014
!!!RT#2: 9
!!!RTL3: Georg Philipp Telemann: Twelve Fantasies for Flute
!!!RPN3: Robertello, Thomas
!!!RMM3: Delos
!!!RC#3: DE3396
!!!RRD3: 1 June 2009
!!!RLC3: Clear Creek Recording, Keene, California
!!!RDT3: Unknown
!!!RT#3: 9
